X: 582
U:~=!turn!
M:C
L:1/8
K:D
fafd egec | .d2 .d2 .d2 || g2 | fdfd fagf | ecec egfe | fdfd fagf |
edcB A2 g2 | fdfd fagf | ecec egfe | fafd egec | d2 d2 d2 |]


